X:1
T: The Ewe wi' the Crooked Horn
C:
R:Strathspey
Q: 128
K:Gm
M:4/4
L:1/16
|:DG3 G3A F3G A2F2|DG3 G2AB c3A B3G|A3B c3B A3G FC3|DG3 G3B A^F3 G4|
Gg3 g3a f3g a3f|dg3 g3a ^fa3 g4|dg3 g3a bag2 agf2|dg3 b3g a^f3 g4|
f3g f3d c3B AF3|GABc d3B c3A G4|Gg3 g3a f3g af3|dg3 g3a ^fa3 g4|
dg3 g3a bag2 agf2|d3g b3g a3^f g4|f3g f3d c3B AF3|GABc d3B cA3 G4:|
